images/crashed.svg

<?xml version="1.0" encoding="utf-8"?>
<!-- Generated by IcoMoon.io -->
<!DOCTYPE svg PUBLIC "-//W3C//DTD SVG 1.1//EN" "http://www.w3.org/Graphics/SVG/1.1/DTD/svg11.dtd">
<svg version="1.1" xmlns="http://www.w3.org/2000/svg" xmlns:xlink="http://www.w3.org/1999/xlink" width="30" height="30" viewBox="0 0 30 30">
<g>
	<line stroke-width="1" x1="" y1="" x2="" y2="" stroke="#449FDB" opacity=""></line>
</g>
	<path d="M24.531 8.528h-9.536c-1.137-0.004-1.394-0.173-1.57-0.795-0.176-0.626-0.529-0.733-1.589-0.733-2.842 0-2.668 0-3.035 0-1.060 0-1.413 0.107-1.59 0.732s-0.063 0.796-1.211 0.796h0.466c-0.257 0.003-0.465 0.213-0.465 0.472v13.527c0 0.261 0.21 0.473 0.469 0.473h18.061c0.259 0 0.469-0.212 0.469-0.473v-13.527c0-0.261-0.21-0.472-0.469-0.472zM9.784 13.977c0-1.043 0.839-1.889 1.875-1.889s1.875 0.846 1.875 1.889c0 1.043-0.839 1.889-1.875 1.889s-1.875-0.845-1.875-1.889zM18.781 20.818c-0.751 0-0.751-1.135-3.379-1.135s-2.628 1.135-3.379 1.135c-0.415 0-0.75-0.252-0.75-0.757s0.625-1.891 4.13-1.891 4.129 1.38 4.129 1.891c-0.001 0.512-0.337 0.757-0.751 0.757zM19.158 15.866c-1.035 0-1.874-0.845-1.874-1.889s0.839-1.889 1.874-1.889c1.036 0 1.875 0.846 1.875 1.889s-0.839 1.889-1.875 1.889z" fill="#000000"></path>
</svg>

<?xml version="1.0" encoding="UTF-8" standalone="no"?>
<!-- Created with Inkscape (http://www.inkscape.org/) -->

<svg
   xmlns:dc="http://purl.org/dc/elements/1.1/"
   xmlns:cc="http://creativecommons.org/ns#"
   xmlns:rdf="http://www.w3.org/1999/02/22-rdf-syntax-ns#"
   xmlns:svg="http://www.w3.org/2000/svg"
   xmlns="http://www.w3.org/2000/svg"
   xmlns:inkscape="http://www.inkscape.org/namespaces/inkscape"
   version="1.1"
   width="30"
   height="30"
   viewBox="0 0 30 30"
   id="svg2">
  <metadata
     id="metadata10">
    <rdf:RDF>
      <cc:Work
         rdf:about="">
        <dc:format>image/svg+xml</dc:format>
        <dc:type
           rdf:resource="http://purl.org/dc/dcmitype/StillImage" />
      </cc:Work>
    </rdf:RDF>
  </metadata>
  <defs
     id="defs8" />
  <path
     d="M 24.53,8.528 H 14.995 C 13.858,8.524 13.601,8.355 13.425,7.733 13.249,7.107 12.895,7 11.835,7 H 8.802 C 7.742,7 7.39,7.107 7.212,7.732 7.034,8.357 7.15,8.528 6.002,8.528 H 6.468 C 6.21,8.53 6,8.74 6,9 V 22.527 C 6,22.787 6.21,23 6.47,23 H 24.53 C 24.79,23 25,22.788 25,22.527 V 9 C 25,8.74 24.79,8.528 24.53,8.528 z m -14.746,5.45 c 0,-1.044 0.84,-1.89 1.875,-1.89 1.035,0 1.87,0.846 1.87,1.89 0,1.042 -0.84,1.888 -1.88,1.888 -1.04,0 -1.878,-0.845 -1.878,-1.89 z m 8.997,6.84 c -0.75,0 -0.75,-1.135 -3.37,-1.135 -2.62,0 -2.63,1.135 -3.38,1.135 -0.41,0 -0.75,-0.252 -0.75,-0.757 0,-0.505 0.63,-1.89 4.13,-1.89 3.5,0 4.13,1.38 4.13,1.89 0,0.52 -0.334,0.76 -0.75,0.76 z m 0.38,-4.952 c -1.03,0 -1.87,-0.845 -1.87,-1.89 0,-1.045 0.84,-1.888 1.88,-1.888 1.04,0 1.874,0.846 1.874,1.89 0,1.044 -0.84,1.888 -1.875,1.888 z"
     inkscape:connector-curvature="0"
     id="path4" />
</svg>
